X:38
T:Martin Said To His Man
T:Who's the Fool Now
Z:Digital Tradition KSC
M:3/4
L:1/4
K:G
G G A| B3/2 B/2 A| G2 D| G3| A A B| c3/2 d/2 B| A3/2 B/2 G| A3|
B c d|c3/2 B/2 A| G G/2A/2 B/2c/2| A3/2 F/2 C| G G E| C3/2 D/2 E| B3/2 c/2 A|\
G3|
